!!!SOCIAL_FUNCTION:	bird dance songs
!!!PDT:	1932
!!!OTL: No_109_Song_in_the_Early_Morning_(a).krn
!!!REG: Southwest
!!!LANG: Non-Tone
!!!LING_GROUP: Yuman-Cochimi
**kern	**kern
*staff2	*staff1
=1-	=1-
*clefF4	*clefF4
*k[f#c#g#d#a#]	*k[f#c#g#d#a#]
*M2/4	*M2/4
8GG#^/L	4r
8GG#/J	.
4r	8r
.	16B\LL
.	16B\JJ
=2	=2
8GG#^/L	8A#\L
8GG#/J	16B\L
.	16B\JJ
4r	8A#\L
.	16B\L
.	16B\JJ
=3||	=3||
*M5/8	*M5/8
8GG#^/L	8.G#\L
8GG#/J	.
.	16G#\Jk
4r	4G#\
8r	8r
=4||	=4||
*M3/4	*M3/4
2.r	16B\LL
.	16B\J
.	8G#\J
.	8B\L
.	16B\L
.	16G#\JJ
.	8G#\
.	8r
=5||	=5||
*M2/4	*M2/4
2r	8.E\L
.	16G#\Jk
.	8.G#\L
.	16E\Jk
=6||	=6||
*M3/4	*M3/4
2.r	8.G#\L
.	16G#\Jk
.	4G#\
.	8r
.	16B\LL
.	16B\JJ
=7||	=7||
*M2/4	*M2/4
2r	8A#\L
.	16B\L
.	16B\JJ
.	8A#\L
.	16B\L
.	16B\JJ
=8||	=8||
*M5/8	*M5/8
3...r	8.G#\L
.	16G#\Jk
.	4G#\
.	8r
=9||	=9||
*M3/4	*M3/4
2.r	16B\LL
.	16B\J
.	8G#\J
.	16B\LL
.	16B\J
.	8G#\J
.	8G#\
.	8r
=10||	=10||
*M2/4	*M2/4
2r	8.E\L
.	16G#\Jk
.	8.G#\L
.	16E\Jk
=11||	=11||
*M3/4	*M3/4
2.r	8.G#\L
.	16G#\Jk
.	4G#\
.	8r
.	16B\LL
.	16B\JJ
=12||	=12||
*M2/4	*M2/4
2r	8A#\L
.	16B\L
.	16B\JJ
.	8A#\L
.	16B\L
.	16B\JJ
=13||	=13||
*M5/8	*M5/8
3...r	8.G#\L
.	16G#\Jk
.	4G#\
.	8r
=14||	=14||
*M3/4	*M3/4
2.r	16B\LL
.	16B\J
.	8G#\J
.	16B\LL
.	16B\J
.	8G#\J
.	8G#\
.	8r
=15||	=15||
*M2/4	*M2/4
2r	8.E\L
.	16G#\Jk
.	8.G#\L
.	16E\Jk
=16	=16
2r	8.G#\L
.	16G#\Jk
.	4G#\
=17	=17
2r	2r
=18	=18
2r	4r
.	8r
.	8G#\
=19	=19
2r	16d#\LL
.	16d#\J
.	8A#\J
.	16d#\LL
.	16d#\J
.	8A#\J
=20||	=20||
*M6/8	*M6/8
2.r	8B\L
.	16A#\L
.	16B\
.	16G#\
.	16B\JJ
.	8A#\
.	8r
.	16B\LL
.	16B\JJ
=21||	=21||
*M2/4	*M2/4
2r	8A#\L
.	16B\L
.	16B\JJ
.	8A#\L
.	16A#\L
.	16B\JJ
=22	=22
2r	16G#\LL
.	16G#\
.	16G#\
.	16G#\JJ
.	8G#\
.	8r
=23	=23
2r	16B\LL
.	16B\J
.	8G#\J
.	16B\LL
.	16B\J
.	8G#\J
=24||	=24||
*M5/8	*M5/8
3...r	8G#\
.	16r
.	16E\LL
.	16E\
.	16E\J
.	8.G#\
.	16E\Jk
=25||	=25||
*M3/4	*M3/4
2.r	8.G#\L
.	16G#\Jk
.	4G#\
.	8r
.	16B\LL
.	16B\JJ
=26||	=26||
*M2/4	*M2/4
2r	8A#\L
.	16B\L
.	16B\JJ
.	8A#\L
.	16A#\L
.	16B\JJ
=27||	=27||
*M5/8	*M5/8
3...r	8.G#\L
.	16G#\Jk
.	4G#\
.	8r
=28||	=28||
*M3/4	*M3/4
2.r	16B\LL
.	16B\J
.	8G#\J
.	16B\LL
.	16B\J
.	8G#\J
.	8G#\
.	8r
=29||	=29||
*M2/4	*M2/4
2r	8.E\L
.	16G#\Jk
.	8.G#\L
.	16E\Jk
=30	=30
2r	8.G#\L
.	16G#\Jk
.	4G#\
==	==
*-	*-
